X:63508872558566
T:7-2-11-4-10-11-5-5-8-12-7-8-4-11-3-4
%%setfont-1 Courier-Bold 8
T:$1K.516f::104:22:165:13:75:47:159:100:16:20:150:175:73:59:116:79::$0
T:$1Perm. No.: 63508872558566$0
M:3/8
L:1/8
Q:1/8=111
%%staves [1 2]
V:1 clef=treble
V:2 clef=bass
K:C
%1
[V:1]|: e/d/e/g/c'/g/ |\
[V:2]|: C,2z |\
%2
[V:1] ecG   |\
[V:2] C,2z |\
%3
[V:1] (dBG) |\
[V:2] B,,2z |\
%4
[V:1] (cGE) |\
[V:2] [E,2G,2]z |\
%5
[V:1] [^fd][fd][fd] |\
[V:2] C,C,C,   |\
%6
[V:1] gg/d/b |\
[V:2] [D,2B,,2]z |\
%7
[V:1] e/g/d/c/B/A/ \
[V:2] C,D,D,, \
%8a
[V:1]|1 [g2d2B2G2]z :|2
[V:2]|1 G,,G,/=F,/E,/D,/ :|2
%8b
[V:1] [g2d2B2G2]z |:\
[V:2] G,,B,/G,/^F,/E,/ |:\
%9
[V:1] (a^fd) |\
[V:2] [^F,2D,2][F,C,] |\
%10
[V:1] gb/d'/d |\
[V:2] B,,2z |\
%11
[V:1] [ecG]!trill!e2 |\
[V:2] C,/B,,/C,/D,/E,/^F,/ |\
%12
[V:1] e/c/B/d/g |\
[V:2] G,G,,z |\
%13
[V:1] gec |\
[V:2] [E,/C,/]G,/[E,/C,/]G,/[E,/C,/]G,/ |\
%14
[V:1] gce |\
[V:2] [E,/C,/]G,/[E,/C,/]G,/[E,/C,/]G,/ |\
%15
[V:1] d/f/a/f/d/B/ |\
[V:2] F,2G, |\
%16
[V:1] c2z :|]
[V:2] C,G,,C,, :|]
